src/topics/icons/tunein.svg

<svg height="275" preserveAspectRatio="xMidYMid" viewBox="0 0 256 275" width="256" xmlns="http://www.w3.org/2000/svg"><path d="m0 108.687749c0-2.374751 1.92153654-4.296288 4.29859978-4.296288h121.67650322c21.950838 0 39.811185 17.79329 39.811185 39.667821v35.339161c0 2.384-1.935411 4.312474-4.314786 4.312474-.071682 0-.166487 0-.252043.011561l-121.5631996-.011561c-21.8606575 0-39.6562594-17.788665-39.6562594-39.670133zm216.843201-4.320799h34.865136c2.367814 0 4.291663 1.933099 4.291663 4.2986v35.364597c0 21.872219-17.779416 39.656259-39.653947 39.656259l-34.774956-.006937c-2.47418 0-4.404966-1.889164-4.404966-4.28935v-35.350723c0-21.879156 17.802539-39.672446 39.67707-39.672446zm-55.372624 90.746009h-70.2343574c-2.3724386 0-4.2985998 1.933098-4.2985998 4.298599v70.719944c0 2.411748 1.9446597 4.291663 4.4119034 4.291663l34.7633938.006937c21.872219 0 39.672446-17.788665 39.672446-39.663196v-35.355348c0-2.365501-1.933098-4.298599-4.314786-4.298599zm10.082401-149.9140725c0 24.9637887-20.23741 45.2011988-45.201199 45.2011988-24.961476 0-45.198886-20.2374101-45.198886-45.2011988 0-24.9614764 20.23741-45.1988865 45.198886-45.1988865 24.963789 0 45.201199 20.2374101 45.201199 45.1988865z" fill="#29b4a7"/></svg>

<?xml version="1.0" encoding="UTF-8" standalone="no"?>
<svg width="256px" height="275px" viewBox="0 0 256 275" version="1.1" xmlns="http://www.w3.org/2000/svg" xmlns:xlink="http://www.w3.org/1999/xlink" preserveAspectRatio="xMidYMid">
    <g>
        <path d="M0,108.687749 C0,106.312998 1.92153654,104.391461 4.29859978,104.391461 L125.975103,104.391461 C147.925941,104.391461 165.786288,122.184751 165.786288,144.059282 L165.786288,179.398443 C165.786288,181.782443 163.850877,183.710917 161.471502,183.710917 C161.39982,183.710917 161.305015,183.710917 161.219459,183.722478 L39.6562594,183.710917 C17.7956019,183.710917 0,165.922252 0,144.040784 L0,108.687749 Z M216.843201,104.36695 L251.708337,104.36695 C254.076151,104.36695 256,106.300049 256,108.66555 L256,144.030147 C256,165.902366 238.220584,183.686406 216.346053,183.686406 L181.571097,183.679469 C179.096917,183.679469 177.166131,181.790305 177.166131,179.390119 L177.166131,144.039396 C177.166131,122.16024 194.96867,104.36695 216.843201,104.36695 Z M161.470577,195.112959 L91.2362196,195.112959 C88.863781,195.112959 86.9376198,197.046057 86.9376198,199.411558 L86.9376198,270.131502 C86.9376198,272.54325 88.8822795,274.423165 91.3495232,274.423165 L126.112917,274.430102 C147.985136,274.430102 165.785363,256.641437 165.785363,234.766906 L165.785363,199.411558 C165.785363,197.046057 163.852265,195.112959 161.470577,195.112959 Z M171.552978,45.1988865 C171.552978,70.1626752 151.315568,90.4000853 126.351779,90.4000853 C101.390303,90.4000853 81.152893,70.1626752 81.152893,45.1988865 C81.152893,20.2374101 101.390303,0 126.351779,0 C151.315568,0 171.552978,20.2374101 171.552978,45.1988865 Z" fill="#29B4A7"></path>
    </g>
</svg>
